public/assets/img/arrow-left-dark.svg

<svg width="24" height="24" viewBox="0 0 24 24" fill="none" xmlns="http://www.w3.org/2000/svg">
<g id="arrow_left">
<path id="shape" d="M10.6367 18.5078C11.2148 18.5078 11.6211 18.1016 11.6211 17.5547C11.6211 17.2578 11.4961 17.0234 11.3164 16.8359L9.55078 15.0625L7.56641 13.2422L9.32422 13.3438H18.4805C19.0898 13.3438 19.5039 12.9375 19.5039 12.3438C19.5039 11.75 19.0898 11.3438 18.4805 11.3438H9.32422L7.56641 11.4375L9.55078 9.625L11.3164 7.84375C11.5039 7.65625 11.6211 7.42188 11.6211 7.125C11.6211 6.58594 11.2148 6.17188 10.6367 6.17188C10.3867 6.17188 10.1445 6.27344 9.91797 6.49219L4.80859 11.6016C4.61328 11.7891 4.49609 12.0703 4.49609 12.3438C4.49609 12.6172 4.61328 12.8906 4.80859 13.0859L9.93359 18.1953C10.1445 18.4062 10.3867 18.5078 10.6367 18.5078Z" fill="white"/>
</g>
</svg>

<svg width="24" height="24" fill="none" xmlns="http://www.w3.org/2000/svg"><path d="M10.637 18.508c.578 0 .984-.406.984-.953 0-.297-.125-.532-.305-.72l-1.765-1.773-1.985-1.82 1.758.102h9.156c.61 0 1.024-.406 1.024-1s-.414-1-1.024-1H9.324l-1.758.094 1.985-1.813 1.765-1.781a.983.983 0 0 0 .305-.719c0-.54-.406-.953-.984-.953-.25 0-.492.101-.719.32l-5.11 5.11a1.053 1.053 0 0 0-.312.742c0 .273.117.547.313.742l5.125 5.11c.21.21.453.312.703.312Z" fill="#fff"/></svg>
